svg/logo-python.svg

<?xml version="1.0" encoding="UTF-8" standalone="no"?>
<svg
   xmlns:dc="http://purl.org/dc/elements/1.1/"
   xmlns:cc="http://creativecommons.org/ns#"
   xmlns:rdf="http://www.w3.org/1999/02/22-rdf-syntax-ns#"
   xmlns:svg="http://www.w3.org/2000/svg"
   xmlns="http://www.w3.org/2000/svg"
   xmlns:sodipodi="http://sodipodi.sourceforge.net/DTD/sodipodi-0.dtd"
   xmlns:inkscape="http://www.inkscape.org/namespaces/inkscape"
   class="ionicon"
   viewBox="0 0 512 512"
   version="1.1"
   id="svg8"
   sodipodi:docname="logo-python.svg"
   inkscape:version="1.0.2 (e86c8708, 2021-01-15)">
  <metadata
     id="metadata14">
    <rdf:RDF>
      <cc:Work
         rdf:about="">
        <dc:format>image/svg+xml</dc:format>
        <dc:type
           rdf:resource="http://purl.org/dc/dcmitype/StillImage" />
      </cc:Work>
    </rdf:RDF>
  </metadata>
  <defs
     id="defs12" />
  <sodipodi:namedview
     pagecolor="#ffffff"
     bordercolor="#666666"
     borderopacity="1"
     objecttolerance="10"
     gridtolerance="10"
     guidetolerance="10"
     inkscape:pageopacity="0"
     inkscape:pageshadow="2"
     inkscape:window-width="689"
     inkscape:window-height="480"
     id="namedview10"
     showgrid="false"
     inkscape:zoom="1.3027344"
     inkscape:cx="256"
     inkscape:cy="256"
     inkscape:window-x="44"
     inkscape:window-y="25"
     inkscape:window-maximized="0"
     inkscape:current-layer="svg8" />
  <title
     id="title2">Logo Python</title>
  <path
     style="color:#000000;font-style:normal;font-variant:normal;font-weight:normal;font-stretch:normal;font-size:medium;line-height:normal;font-family:sans-serif;font-variant-ligatures:normal;font-variant-position:normal;font-variant-caps:normal;font-variant-numeric:normal;font-variant-alternates:normal;font-variant-east-asian:normal;font-feature-settings:normal;font-variation-settings:normal;text-indent:0;text-align:start;text-decoration:none;text-decoration-line:none;text-decoration-style:solid;text-decoration-color:#000000;letter-spacing:normal;word-spacing:normal;text-transform:none;writing-mode:lr-tb;direction:ltr;text-orientation:mixed;dominant-baseline:auto;baseline-shift:baseline;text-anchor:start;white-space:normal;shape-padding:0;shape-margin:0;inline-size:0;clip-rule:nonzero;display:inline;overflow:visible;visibility:visible;isolation:auto;mix-blend-mode:normal;color-interpolation:sRGB;color-interpolation-filters:linearRGB;solid-color:#000000;solid-opacity:1;vector-effect:none;fill:#000000;fill-opacity:1;fill-rule:nonzero;stroke-width:1;stroke-linecap:butt;stroke-linejoin:miter;stroke-miterlimit:4;stroke-dasharray:none;stroke-dashoffset:0;stroke-opacity:1;color-rendering:auto;image-rendering:auto;shape-rendering:auto;text-rendering:auto;enable-background:accumulate;stop-color:#000000;stop-opacity:1;stroke:none;opacity:1"
     d="M 314,36.38 C 295.41,33.32 268.2,31.91 249.73,32 232.41813,32.02004 215.13813,33.485126 198.07,36.38 152.33,44.38 144,61.08 144,91.92 V 128 h 112 v 16 H 107.62 C 66.06,144 32.33,193.67 32,255.12 V 256 c -0.01441,10.74378 1.034031,21.46264 3.13,32 9.29,46.28 38.23,80 72.49,80 H 128 v -54 c 0,-31.3 20.84,-59.95 55,-66.1 l 9.87,-1.23 H 314 c 5.0875,0.0199 10.15403,-0.65294 15.06,-2 23.06786,-6.15975 39.07037,-27.11424 38.94,-50.99 V 91.92 C 368,63 343.32,41.19 314,36.38 Z M 194.93,105.5 C 176.74737,105.56238 167.60156,83.582642 180.4571,70.727099 193.31264,57.871555 215.29238,67.017375 215.23,85.2 c 0.006,11.213669 -9.08633,20.30553 -20.3,20.3 z"
     id="path4" />
  <path
     style="color:#000000;font-style:normal;font-variant:normal;font-weight:normal;font-stretch:normal;font-size:medium;line-height:normal;font-family:sans-serif;font-variant-ligatures:normal;font-variant-position:normal;font-variant-caps:normal;font-variant-numeric:normal;font-variant-alternates:normal;font-variant-east-asian:normal;font-feature-settings:normal;font-variation-settings:normal;text-indent:0;text-align:start;text-decoration:none;text-decoration-line:none;text-decoration-style:solid;text-decoration-color:#000000;letter-spacing:normal;word-spacing:normal;text-transform:none;writing-mode:lr-tb;direction:ltr;text-orientation:mixed;dominant-baseline:auto;baseline-shift:baseline;text-anchor:start;white-space:normal;shape-padding:0;shape-margin:0;inline-size:0;clip-rule:nonzero;display:inline;overflow:visible;visibility:visible;isolation:auto;mix-blend-mode:normal;color-interpolation:sRGB;color-interpolation-filters:linearRGB;solid-color:#000000;solid-opacity:1;vector-effect:none;fill:#000000;fill-opacity:1;fill-rule:nonzero;stroke-width:1;stroke-linecap:butt;stroke-linejoin:miter;stroke-miterlimit:4;stroke-dasharray:none;stroke-dashoffset:0;stroke-opacity:1;color-rendering:auto;image-rendering:auto;shape-rendering:auto;text-rendering:auto;enable-background:accumulate;stop-color:#000000;stop-opacity:1;stroke:none;opacity:1"
     d="m 475.28,217 c -10.7,-42.61 -38.41,-73 -70.9,-73 h -17.71 v 47.45 c 0,39.57 -26,68.22 -57.74,73.13 -3.20612,0.49702 -6.44559,0.74776 -9.69,0.75 H 198.08 c -5.13923,-0.005 -10.2578,0.65043 -15.23,1.95 C 160.54,273.14 144,291.7 144,315.77 v 101.77 c 0,29 29.14,46 57.73,54.31 34.21,9.95 71.48,11.75 112.42,0 C 341.34,464.08 368,448.37 368,417.54 V 384 H 256 v -16 h 148.38 c 29.44,0 54.95,-24.93 67.45,-61.31 5.4895,-16.33312 8.24982,-33.45925 8.17,-50.69 0.0282,-13.14415 -1.55703,-26.24206 -4.72,-39 z M 316.51,404 c 18.18263,-0.0624 27.32844,21.91736 14.4729,34.7729 -12.85554,12.85554 -34.83528,3.70973 -34.7729,-14.4729 -0.006,-11.21367 9.08633,-20.30553 20.3,-20.3 z"
     id="path6" />
</svg>

<svg xmlns="http://www.w3.org/2000/svg" width="512" height="512" viewBox="0 0 512 512"><title>ionicons-v5_logos</title><path d="M314,36.38c-18.59-3.06-45.8-4.47-64.27-4.38a311.09,311.09,0,0,0-51.66,4.38c-45.74,8-54.07,24.7-54.07,55.54V128H256v16H107.62C66.06,144,32.33,193.67,32,255.12c0,.29,0,.58,0,.88a162.91,162.91,0,0,0,3.13,32c9.29,46.28,38.23,80,72.49,80H128V314c0-31.3,20.84-59.95,55-66.1l9.87-1.23H314a56.05,56.05,0,0,0,15.06-2A52.48,52.48,0,0,0,368,193.68V91.92C368,63,343.32,41.19,314,36.38ZM194.93,105.5a20.37,20.37,0,1,1,20.3-20.3A20.29,20.29,0,0,1,194.93,105.5Z"/><path d="M475.28,217c-10.7-42.61-38.41-73-70.9-73H386.67v47.45c0,39.57-26,68.22-57.74,73.13a63.54,63.54,0,0,1-9.69.75H198.08a60,60,0,0,0-15.23,1.95C160.54,273.14,144,291.7,144,315.77V417.54c0,29,29.14,46,57.73,54.31,34.21,9.95,71.48,11.75,112.42,0,27.19-7.77,53.85-23.48,53.85-54.31V384H256V368H404.38c29.44,0,54.95-24.93,67.45-61.31A156.83,156.83,0,0,0,480,256,160.64,160.64,0,0,0,475.28,217ZM316.51,404a20.37,20.37,0,1,1-20.3,20.3A20.29,20.29,0,0,1,316.51,404Z"/></svg>
